icons/circle/48/chrome-https___stackedit.io_editor.svg

<svg version="1.1" viewBox="0 0 48 48" xmlns="http://www.w3.org/2000/svg">
 <path d="m36.31 5c5.859 4.062 9.688 10.831 9.688 18.5 0 12.426-10.07 22.5-22.5 22.5-7.669 0-14.438-3.828-18.5-9.688 1.037 1.822 2.306 3.499 3.781 4.969 4.085 3.712 9.514 5.969 15.469 5.969 12.703 0 23-10.298 23-23 0-5.954-2.256-11.384-5.969-15.469-1.469-1.475-3.147-2.744-4.969-3.781zm4.969 3.781c3.854 4.113 6.219 9.637 6.219 15.719 0 12.703-10.297 23-23 23-6.081 0-11.606-2.364-15.719-6.219 4.16 4.144 9.883 6.719 16.219 6.719 12.703 0 23-10.298 23-23 0-6.335-2.575-12.06-6.719-16.219z" style="opacity:.05"/>
 <path d="m41.28 8.781c3.712 4.085 5.969 9.514 5.969 15.469 0 12.703-10.297 23-23 23-5.954 0-11.384-2.256-15.469-5.969 4.113 3.854 9.637 6.219 15.719 6.219 12.703 0 23-10.298 23-23 0-6.081-2.364-11.606-6.219-15.719z" style="opacity:.1"/>
 <path d="m31.25 2.375c8.615 3.154 14.75 11.417 14.75 21.13 0 12.426-10.07 22.5-22.5 22.5-9.708 0-17.971-6.135-21.12-14.75a23 23 0 0 0 44.875 -7 23 23 0 0 0 -16 -21.875z" style="opacity:.2"/>
 <path d="m24 1c12.703 0 23 10.297 23 23s-10.297 23-23 23-23-10.297-23-23 10.297-23 23-23z" style="fill:#ff8a00"/>
 <path d="m24 1v23l16.264 16.264c4.1621-4.1621 6.7363-9.9122 6.7363-16.264 0-12.703-10.297-23-23-23z" style="fill-rule:evenodd;fill:#75b7fd"/>
 <path d="m24 1v23l-16.264 16.264c-4.1621-4.1621-6.7363-9.9122-6.7363-16.264 0-12.703 10.297-23 23-23z" style="fill-rule:evenodd;fill:#bbd500"/>
 <path d="m7.737 7.737 16.263 16.263 16.263-16.263c-8.982-8.982-23.545-8.982-32.527 0z" style="fill-rule:evenodd;fill:#ffe600"/>
 <path d="m40.03 7.531c3.712 4.084 5.969 9.514 5.969 15.469 0 12.703-10.297 23-23 23-5.954 0-11.384-2.256-15.469-5.969 4.178 4.291 10.01 6.969 16.469 6.969 12.703 0 23-10.298 23-23 0-6.462-2.677-12.291-6.969-16.469z" style="opacity:.1"/>
 <path d="m16.75 13h16.5c2.071 0 3.75 1.679 3.75 3.75v16.5c0 2.071-1.679 3.75-3.75 3.75h-16.5c-2.071 0-3.75-1.679-3.75-3.75v-16.5c0-2.071 1.679-3.75 3.75-3.75z" style="opacity:.1"/>
 <path d="m15.75 12h16.5c2.071 0 3.75 1.679 3.75 3.75v16.5c0 2.071-1.679 3.75-3.75 3.75h-16.5c-2.071 0-3.75-1.679-3.75-3.75v-16.5c0-2.071 1.679-3.75 3.75-3.75z" style="fill:#fff"/>
 <path d="m19 16-0.469 3h-2.531v2h2.219l-0.469 3h-1.75v2h1.469l-0.469 3h2l0.469-3h2l-0.469 3h2l0.469-3h2.531v-2h-2.25l0.469-3h1.781v-2h-1.469l0.469-3h-2l-0.469 3h-2l0.469-3h-2zm1.219 5h2l-0.469 3h-2l0.469-3z" style="opacity:.1"/>
 <path d="m16 28 2-13h2l-2 13z" style="fill:#737373"/>
 <path d="m20 28 2-13h2l-2 13z" style="fill:#737373"/>
 <rect x="15" y="18" width="10" height="2" style="fill:#737373"/>
 <rect x="15" y="23" width="10" height="2" style="fill:#737373"/>
</svg>

<svg viewBox="0 0 48 48" xmlns="http://www.w3.org/2000/svg">
  <path d="M36.31 5c5.859 4.062 9.688 10.831 9.688 18.5 0 12.426-10.07 22.5-22.5 22.5-7.669 0-14.438-3.828-18.5-9.688a23.24 23.24 0 0 0 3.781 4.969 22.923 22.923 0 0 0 15.469 5.969c12.703 0 23-10.298 23-23a22.92 22.92 0 0 0-5.969-15.469A23.216 23.216 0 0 0 36.31 5zm4.969 3.781A22.911 22.911 0 0 1 47.498 24.5c0 12.703-10.297 23-23 23a22.909 22.909 0 0 1-15.719-6.219C12.939 45.425 18.662 48 24.998 48c12.703 0 23-10.298 23-23 0-6.335-2.575-12.06-6.719-16.219z" opacity=".05"/>
  <path d="M41.28 8.781a22.923 22.923 0 0 1 5.969 15.469c0 12.703-10.297 23-23 23A22.92 22.92 0 0 1 8.78 41.281 22.911 22.911 0 0 0 24.499 47.5c12.703 0 23-10.298 23-23A22.909 22.909 0 0 0 41.28 8.781z" opacity=".1"/>
  <path d="M31.25 2.375C39.865 5.529 46 13.792 46 23.505c0 12.426-10.07 22.5-22.5 22.5-9.708 0-17.971-6.135-21.12-14.75a23 23 0 0 0 44.875-7 23 23 0 0 0-16-21.875z" opacity=".2"/>
  <path d="M24 1c12.703 0 23 10.297 23 23S36.703 47 24 47 1 36.703 1 24 11.297 1 24 1z" fill="#ff8a00"/>
  <path d="M24 1v23l16.264 16.264A22.928 22.928 0 0 0 47 24C47 11.297 36.703 1 24 1z" fill-rule="evenodd" fill="#75b7fd"/>
  <path d="M24 1v23L7.736 40.264A22.928 22.928 0 0 1 1 24C1 11.297 11.297 1 24 1z" fill-rule="evenodd" fill="#bbd500"/>
  <path d="M7.737 7.737L24 24 40.263 7.737c-8.982-8.982-23.545-8.982-32.527 0z" fill-rule="evenodd" fill="#ffe600"/>
  <path d="M40.03 7.531A22.922 22.922 0 0 1 45.999 23c0 12.703-10.297 23-23 23A22.92 22.92 0 0 1 7.53 40.031C11.708 44.322 17.54 47 23.999 47c12.703 0 23-10.298 23-23 0-6.462-2.677-12.291-6.969-16.469z" opacity=".1"/>
  <path d="M16.75 13h16.5A3.75 3.75 0 0 1 37 16.75v16.5A3.75 3.75 0 0 1 33.25 37h-16.5A3.75 3.75 0 0 1 13 33.25v-16.5A3.75 3.75 0 0 1 16.75 13z" opacity=".1"/>
  <path d="M15.75 12h16.5A3.75 3.75 0 0 1 36 15.75v16.5A3.75 3.75 0 0 1 32.25 36h-16.5A3.75 3.75 0 0 1 12 32.25v-16.5A3.75 3.75 0 0 1 15.75 12z" fill="#fff"/>
  <path d="M19 16l-.469 3H16v2h2.219l-.469 3H16v2h1.469L17 29h2l.469-3h2L21 29h2l.469-3H26v-2h-2.25l.469-3H26v-2h-1.469L25 16h-2l-.469 3h-2L21 16h-2zm1.219 5h2l-.469 3h-2l.469-3z" opacity=".1"/>
  <path d="M16 28l2-13h2l-2 13zM20 28l2-13h2l-2 13z" fill="#737373"/>
  <path fill="#737373" d="M15 18h10v2H15zM15 23h10v2H15z"/>
</svg>
